Sources/FrostedUI/Resources/Icons.xcassets/addUser16.imageset/add-user-16.svg

<svg width="16" height="16" viewBox="0 0 16 16" fill="none" xmlns="http://www.w3.org/2000/svg" data-fui-icon="true">
  <path
    d="M12.8008 9.65039C13.2146 9.6508 13.5508 9.98643 13.5508 10.4004V12.0508H15.2002C15.6142 12.051 15.9502 12.3867 15.9502 12.8008C15.9498 13.2145 15.614 13.5506 15.2002 13.5508H13.5508V15.2002C13.5506 15.614 13.2145 15.9498 12.8008 15.9502C12.3867 15.9502 12.051 15.6142 12.0508 15.2002V13.5508H10.4004C9.98643 13.5508 9.6508 13.2146 9.65039 12.8008C9.65039 12.3866 9.98618 12.0508 10.4004 12.0508H12.0508V10.4004C12.0508 9.98618 12.3866 9.65039 12.8008 9.65039ZM7.99902 8.64941C8.78139 8.64941 9.53477 8.77492 10.2334 9.00488C10.6266 9.13439 10.841 9.55793 10.7119 9.95117C10.5824 10.3445 10.158 10.5591 9.76465 10.4297C9.21696 10.2494 8.62165 10.1494 7.99902 10.1494C5.13158 10.1499 2.94958 12.2174 2.94922 14.5996C2.94911 15.0137 2.61337 15.3496 2.19922 15.3496C1.78543 15.3492 1.44932 15.0135 1.44922 14.5996C1.44957 11.2392 4.46131 8.64989 7.99902 8.64941ZM8 0.649414C10.0707 0.649612 11.7497 2.32874 11.75 4.39941C11.75 6.47036 10.0709 8.14922 8 8.14941C5.9291 8.14922 4.25 6.47036 4.25 4.39941C4.25032 2.32874 5.9293 0.649612 8 0.649414ZM8 2.14941C6.75772 2.14961 5.75032 3.15716 5.75 4.39941C5.75 5.64193 6.75753 6.64922 8 6.64941C9.24247 6.64922 10.25 5.64193 10.25 4.39941C10.2497 3.15716 9.24228 2.14961 8 2.14941Z"
    fill="currentColor"
  />
</svg>

<svg xmlns="http://www.w3.org/2000/svg" width="16" height="16" fill="none" data-fui-icon="true" viewBox="0 0 16 16"><path fill="currentColor" d="M12.8 9.65a.75.75 0 0 1 .75.75v1.65h1.65a.75.75 0 0 1 0 1.5h-1.65v1.65a.751.751 0 0 1-1.5 0v-1.65H10.4a.75.75 0 0 1 0-1.5h1.65V10.4a.75.75 0 0 1 .75-.75M8 8.65c.782 0 1.536.125 2.234.355a.75.75 0 0 1-.468 1.425 5.7 5.7 0 0 0-1.766-.28c-2.867 0-5.05 2.067-5.05 4.45a.75.75 0 0 1-1.5 0c0-3.36 3.012-5.95 6.55-5.95M8 .65a3.75 3.75 0 1 1-.002 7.501A3.75 3.75 0 0 1 8 .649m0 1.5a2.25 2.25 0 1 0 .002 4.501A2.25 2.25 0 0 0 8 2.149"/></svg>
